lib/svgs/jinshuju.svg

<?xml version="1.0" encoding="UTF-8" standalone="no"?>
<svg width="20px" height="20px" viewBox="0 0 20 20" version="1.1" xmlns="http://www.w3.org/2000/svg" xmlns:xlink="http://www.w3.org/1999/xlink">
    <defs></defs>
    <g id="Icons" stroke="none" stroke-width="1" fill="none" fill-rule="evenodd">
        <g id="Web" transform="translate(-481.000000, -1036.000000)" fill="#000000">
            <g id="brand/jinshuju" transform="translate(481.000000, 1036.000000)">
                <path d="M13.1920546,16.9934946 L12.9676322,15.5789482 C12.9676322,15.5789482 12.2129215,16.3381578 11.2607234,16.1471556 C10.8197568,16.0367775 10.3760223,15.6449618 10.2383666,14.9905847 C10.2383666,14.9905847 10.1000722,14.40862 10.2733927,13.7587221 C10.6179044,12.2886133 11.8216728,11.6782809 11.8216728,11.6782809 L11.7500237,10.7219903 C11.7500237,10.7219903 11.0962392,11.5381486 10.2027018,11.1835522 C9.9799828,11.0644291 9.8148599,10.9551175 9.667942,10.597215 C9.5198531,10.2123313 9.6163078,9.8206222 9.6163078,9.8206222 L8.26157604,10.4636948 C8.41945951,10.5840976 9.2948984,11.2273835 9.0195871,13.0882416 C8.93622715,13.5869161 8.66080938,14.4894573 8.08495521,15.1752948 C8.08474228,15.1752948 7.55509272,15.8929126 6.74991892,16.1182547 C6.41200782,16.2047442 6.23698392,16.1853347 6.10156397,16.1707243 L5.99169496,17 L13.1920546,16.9934946 L13.1920546,16.9934946 L13.1920546,16.9934946 Z M4.41328602,12.8135227 C4.77749329,13.1328194 5.27552358,13.4414516 6.1640573,13.1975532 C6.1640573,13.1975532 6.56446172,13.1199153 6.74438288,12.8968128 C6.81571257,12.8157622 6.86181071,12.6909869 6.88267731,12.5389104 C6.91227381,12.1342972 6.88491302,11.3397879 6.31108163,10.9013681 C6.08729804,10.693516 4.91536187,10.1577288 3,11.1325756 C3,11.1325756 4.04907876,12.4940126 4.41328602,12.8135227 L4.41328602,12.8135227 L4.41328602,12.8135227 L4.41328602,12.8135227 Z M9.1852423,8.90283068 C9.6020419,8.46739693 9.6053422,7.41512538 9.5351836,6.88115116 C9.4989865,6.56505378 9.4485234,6.35826808 9.360692,6.12215485 C8.64494651,4.47725403 7.1425516,4.43864834 5.185563,3.83919376 C5.18492422,3.83908711 3.37346948,3.26469423 3.0056425,3 C3.0056425,3 3.41498975,9.8818367 7.18588172,9.6050916 C7.47386204,9.5892014 7.75364477,9.540571 7.99605925,9.4935403 C8.28893683,9.4224078 8.41179423,9.3895609 8.74746963,9.2374844 C8.91642518,9.1511015 9.0601492,9.0527743 9.1852423,8.90283068 L9.1852423,8.90283068 L9.1852423,8.90283068 L9.1852423,8.90283068 Z M10.9524087,8.40500929 C11.1548999,8.75075414 11.2047242,8.78146805 11.3430186,8.91157561 C11.7131878,9.2752369 12.7970797,8.86998385 13.0493952,8.748088 C13.2967069,8.64805448 16.3158691,7.54214022 13.7654601,3 C13.7654601,3 9.1784287,5.03362382 10.9524087,8.40500929 L10.9524087,8.40500929 L10.9524087,8.40500929 L10.9524087,8.40500929 Z M15.9499585,9.4342454 C15.2873376,9.3257869 14.5824512,9.3055242 13.9198303,9.4574941 C13.7377799,9.5001524 13.5743604,9.5603004 13.4042338,9.6652396 C13.041517,9.8875956 12.8316799,10.2592553 12.663789,10.6651482 C12.6445193,10.7228435 12.3566455,11.4254243 12.4948335,11.9024498 C12.6100256,12.320287 13.4579972,12.525793 13.6017212,12.5565069 C13.9198303,12.6231604 14.0257602,12.6299857 14.1754461,12.6443828 C14.282973,12.6505683 14.3161892,12.6468357 14.3668652,12.6443828 C14.9516622,12.6145221 16.230167,12.0969713 16.9999954,9.626314 C17.002444,9.6160761 16.0294858,9.4474695 15.9499585,9.4342454 L15.9499585,9.4342454 L15.9499585,9.4342454 L15.9499585,9.4342454 Z" id="Shape"></path>
            </g>
        </g>
    </g>
</svg>

<svg xmlns="http://www.w3.org/2000/svg" viewBox="0 0 20 20">
    <path fill="#000" fill-rule="evenodd" d="M13.192 16.993l-.224-1.414s-.755.76-1.707.568a1.45 1.45 0 0 1-1.023-1.156s-.138-.582.035-1.232c.345-1.47 1.549-2.08 1.549-2.08l-.072-.957s-.654.816-1.547.462a.996.996 0 0 1-.535-.587c-.148-.385-.052-.776-.052-.776l-1.354.643c.157.12 1.033.763.758 2.624a4.676 4.676 0 0 1-.935 2.087s-.53.718-1.335.943c-.338.087-.513.067-.648.053l-.11.829 7.2-.007zm-8.779-4.18c.364.32.863.628 1.751.385 0 0 .4-.078.58-.301a.683.683 0 0 0 .139-.358c.03-.405.002-1.2-.572-1.638-.224-.207-1.396-.743-3.311.232 0 0 1.05 1.361 1.413 1.68zm4.772-3.91c.417-.436.42-1.488.35-2.022a2.963 2.963 0 0 0-.174-.759C8.645 4.477 7.143 4.44 5.186 3.84c-.001 0-1.813-.574-2.18-.839 0 0 .409 6.882 4.18 6.605.288-.016.568-.064.81-.111.293-.072.416-.104.751-.257.17-.086.313-.184.438-.334zm1.767-.498c.203.346.253.376.391.507.37.363 1.454-.042 1.706-.164.248-.1 3.267-1.206.716-5.748 0 0-4.587 2.034-2.813 5.405zm4.998 1.03a5.325 5.325 0 0 0-2.03.022 1.667 1.667 0 0 0-.516.208 1.99 1.99 0 0 0-.74 1c-.02.058-.307.76-.17 1.237.116.418.964.624 1.108.655.318.066.424.073.573.087.108.007.141.003.192 0 .585-.03 1.863-.547 2.633-3.018.002-.01-.97-.179-1.05-.192z"/>
</svg>
